X: 1585
T: Piyâleler ki O Ruhsâr-ı Âl`e
C: Itrî
O: Turkey
F: http://compmusic.upf.edu/node/140
N: neva--murabba--zencir--piyaleler_ki--itri
N: makam= neva
N: form= murabba
N: usul= zencir = 120/4
M: 120/4
L: 1/16
K: C _2/4B ^3/4f  
Q: 1/4=60
%%MIDI tuningsystem comma53
d2 d4 a2 a2 g2 ^f2 e2  | ^f2 g2 f2 e2 f2 g2 fe f2  | \
w:   |   | 
g2 a2 g3^f e4 e2 g2  | 
w:   | 
^fe d4 z2 g4 a2 a2  | g2 =f2 e2 d2 e2 d2 c2 _1/4B2  | \
w:   |   | 
A2 A2 _1/4B2 AG B2 c2 d6 z2 d2 e2 d2 cB c8 z2 ^f4 f2 z2 de  | 
w:   | 
d2 e^f e2 g2 f2 e2 d2 d6 fg ag fg a4 a3g f2 ga g2 a4 _1/4b2 a2  | 
w:   | 
g2 ^f2 e2 g2 fe f4 _1/4b2  | _1/4b2 a4 g2 g2 ^f4 e2  | \
w:   |   | 
e2 d2 e2 c4 c2 z2 g2  | 
w:   | 
g2 g3^f g3f g2 a2 f4 z2 ef e2 f2 a2 g2 f2  | \
w:   | 
e2 d2 d2 z2 ^f2 f2 f2 g2  | 
w:   | 
^fe f2 g2 g3f e4 e3d ed e2 dc d4 z2 g2  | \
w:   | 
g2 =f2 e2 d2 ed c_1/4B c4  | 
w:   | 
g3^f g3f g3f g3f  | g3^f a3g a3g =f2 g2  | \
w:   |   | 
g2 =f3_1/4e d2 e2 f3a g2  | 
w:   | 
=f2 f_1/4e ed d4 f4 g2  | g2 g6 =f2 g2 a2 g2  | \
w:   |   | 
=f2 f2 g2 f2 _1/4e2 e2 f2 e2  | 
w:   | 
d2 z2 d4 e2 z2 _1/4Bc B2  | cd c2 de d2 e^f e2 fg f2  | \
w:   |   | 
g2 a2 g2 =f2 e2 d2 z2 d2  | 
w:   | 
d2 d2 e2 c3_1/4B dc B4  | A2 A6 z2 c4 d4 d6 z2 d2 d4  | \
w:   |   | 
a2 a2 g2 ^f2 e2 f2 g2 f2  | 
w:   | 
e2 ^f2 g2 fe f2 g2 a2 g3f e4 e2 g2 fe d4  | \
w:   | 
z2 g4 a2 a2 g2 =f2 e2  | 
w:   | 
d2 e2 d2 c2 _1/4B2 A2 A2 B2  | AG _1/4B2 c2 d6 z2 d2  | \
w:   |   | 
e2 d2 c_1/4B c8 z2  | 
w:   | 
^f4 f2 z2 de d2 ef e2  | g2 ^f2 e2 d2 d6 fg  | \
w:   |   | 
ag ^fg a4 a3g f2 ga  | 
w:   | 
g2 a4 _1/4b2 a2 g2 ^f2 e2  | g2 ^fe f4 _1/4b2 b2 a4  | \
w:   |   | 
g2 g2 ^f4 e2 e2 d2 e2  | 
w:   | 
c4 c2 z2 g2 g2 g3^f  | g3^f g2 a2 f4 z2 ef  | \
w:   |   | 
e2 ^f2 a2 g2 f2 e2 d2 d2  | 
w:   | 
z2 ^f2 f2 f2 g2 fe f2 g2  | g3^f e4 e3d ed e2  | \
w:   |   | 
dc d4 z2 g2 g2 =f2 e2  | 
w:   | 
d2 ed c_1/4B c4 g3^f g3f g3f g3f g3f a3g a3g =f2 g2 g2 f3_1/4e  | 
w:   | 
d2 _1/4e2 =f3a g2 f2 fe ed  | d4 =f4 g2 g2 g6 f2 g2 a2 g2 f2 f2 g2  | 
w:   |   | 
=f2 _1/4e2 e2 f2 e2 d2 z2 d4 =e2 z2 _1/4Bc B2 cd c2 de  | \
w:   | 
d2 e^f e2 fg f2 g2 a2 g2  | 
w:   | 
=f2 e2 d2 z2 d2 d2 d2 e2  | c3_1/4B dc B4 A2 A6 z2 g4 a4 a6 z2 a2 g2 ^f2 g2 a6 a2 a4 a2 a2 z4  | 
w:   |   | 
a2 _7/8b^c' b2 a2 ^g2 a2 g4  | a4 z2 ^c'2 _7/8b2 a2 g4  | \
w:   |   | 
^f4 g2 ^c'2 _7/8b2 a2 g2 a2  | 
w:   | 
^f4 z2 _7/8ef e2 fg f2 a2  | g2 ^f2 _7/8e2 f2 e2 de d2 ef  | \
w:   |   | 
_7/8e2 g2 ^f2 e2 d2 d2 z2 f2  | 
w:   | 
_7/8ed ^c2 d2 e2 ^f2 fe dc d4 ag fg a4 a3g f2  | \
w:   | 
ga g2 a6 a6  | 
w:   | 
z2 z2 a4 a2 ^c'2 _7/8b4  | a2 g4 ^f2 _7/8b2 a2 ga g2  | \
w:   |   | 
^fg f2 _7/8ef e2 d2 d2 z2 f2  | 
w:   | 
_7/8e2 ^f4 g4 a=b c'4  | _ba ag a2 g^f g4 g2 z2  | \
w:   |   | 
g2 g2 g3^f c'2 _7/8ba a2 g2  | 
w:   | 
^f2 _7/8c'2 ag g3f ag a2 gf  | g4 z2 c'2 c'2 _7/8b2 a2 g2  | \
w:   |   | 
_7/8ba g=f g3f g3f g3f  | 
w:   | 
g3^f g3f g3f a3g  | a3g =f2 g2 f3_1/4e d2 e2  | \
w:   |   | 
=f3a g2 f2 f_1/4e ed d4  | 
w:   | 
_7/8e3d ^c2 d2 c2 d2 _B4  | _7/8e2 d2 e2 ^fg f2 e4 f2  | \
w:   |   | 
_7/8ed d8 z2 g2 ^f2  | 
w:   | 
g2 a6 _1/4b2 c'4 _7/8b2  | a2 g4 =f4 g4 f_1/4e  | \
w:   |   | 
d2 _1/4e2 =f2 e4 f2 e2 f2  | _1/4e2 =f2 g2 f2 a2 g2 f2 e2  | 
w:   |   | 
_1/4e2 =f2 f2 e2 d2 d8 dc _1/4Bc d4 d2 d4  | \
w:   | 
a2 a2 g2 ^f2 e2 f2 g2 f2  | 
w:   | 
e2 ^f2 g2 fe f2 g2 a2 g3f e4 e2 g2 fe d4  | \
w:   | 
z2 g4 a2 a2 g2 =f2 e2  | 
w:   | 
d2 e2 d2 c2 _1/4B2 A2 A2 B2  | AG _1/4B2 c2 d6 z2 d2  | \
w:   |   | 
e2 d2 c_1/4B c8 z2  | 
w:   | 
^f4 f2 z2 de d2 ef e2  | g2 ^f2 e2 d2 d6 fg  | \
w:   |   | 
ag ^fg a4 a3g f2 ga  | 
w:   | 
g2 a4 _1/4b2 a2 g2 ^f2 e2  | g2 ^fe f4 _1/4b2 b2 a4  | \
w:   |   | 
g2 g2 ^f4 e2 a3g f2  | 
w:   | 
ga g2 a4 _1/4b2 a2 g2 ^f2  | e2 g2 ^fe f4 _1/4b2 b2 a4 g2 g2 f4 e2 e2 d2  | 
w:   |   | 
e2 c4 z4 g2 g2 g3^f g3f g2 a2 f4 z2  | \
w:   | 
e^f e2 f2 a2 g2 f2 e2 d2  | 
w:   | 
d2 z2 ^f2 f2 f2 g2 fe f2  | g2 g3^f e4 e3d ed  | \
w:   |   | 
e2 dc d4 z2 g2 g2 =f2  | 
w:   | 
e2 d2 ed c_1/4B c4 g3^f  | g3^f g3f g3f g3f  | \
w:   |   | 
a3g a3g =f2 g2 f3_1/4e  | 
w:   | 
d2 _1/4e2 =f3a g2 f2 fe ed  | d4 =f4 g2 g2 g6 f2 g2 a2 g2 f2 f2 g2  | 
w:   |   | 
=f2 _1/4e2 e2 f2 e2 d2 z2 d4 =e2 z2 _1/4Bc B2 cd c2 de  | \
w:   | 
d2 e^f e2 fg f2 g2 a2 g2  | 
w:   | 
=f2 e2 d2 z2 d2 d2 d2 e2  | c3_1/4B dc B4 A4 A6 c4 d4 d6 z2 d2 d4 a2 a2 g2  | 
w:   |   | 
^f2 e2 f2 g2 f2 e2 f2 g2  | ^fe f2 g2 a2 g3f e4  | \
w:   |   | 
e2 g2 ^fe d4 z2 g4  | 
w:   | 
a2 a2 g2 =f2 e2 d2 e2 d2  | c2 _1/4B2 A2 A2 B2 AG B2 c2  | \
w:   |   | 
d6 z2 d2 e2 d2 c_1/4B  | 
w:   | 
c8 z2 ^f4 f2  | z2 de d2 e^f e2 g2 f2 e2  | \
w:   |   | 
d2 d6 ^fg ag fg a4 a3g f2 ga g2 a4  | 
w:   | 
_1/4b2 a2 g2 ^f2 e2 g2 fe f4 b2 b2 a4 g2 g2 f4 e2 e2 d2 e2 c4 c2  | 
w:   | 
z2 g2 g2 g3^f g3f g2  | a2 ^f4 z2 ef e2 f2 a2  | \
w:   |   | 
g2 ^f2 e2 d2 d2 z2 f2 f2  | 
w:   | 
^f2 g2 fe f2 g2 g3f e4 e3d ed e2 dc d4  | \
w:   | 
z2 g2 g2 =f2 e2 d2 ed c_1/4B  | 
w:   | 
c4 g3^f g3f g3f  | g3^f g3f a3g a3g  | \
w:   |   | 
=f2 g2 g2 f3_1/4e d2 e2 f3a g2 f2 fe ed d4 f4 g2 g2 g6 f2 g2  | 
w:   | 
a2 g2 =f2 f2 g2 f2 _1/4e2 e2  | =f2 _1/4e2 d2 z2 d4 =e2 z2  | \
w:   |   | 
_1/4Bc B2 cd c2 de d2 e^f e2  | 
w:   | 
^fg f2 g2 a2 g2 =f2 e2 d2  | z2 d2 d2 d2 e2 c3_1/4B dc  | \
w:   |   | 
_1/4B4 A2 A6 z2 |
w:   | 


